X:1
T:Title
%%score { ( 1 5 6 ) | ( 2 3 4 ) }
L:1/8
M:4/4
K:Ab
V:1 treble nm="Grand Piano"
V:5 treble 
V:6 treble 
V:2 bass 
V:3 bass 
V:4 bass 
V:1
 z4 z2[Q:1/4=100] c2 | [Ge]dcB [CA]2 [CE]2 | [_CF]4 [=CE]3 [A,C] | [CE]3 [A,C] [CF]3 [A,C] | %4
 [DG]4- [DG]ABc | [Bd][Ac][GB][FA] [EG]2 [G,DF]2 | [CE]2 [DA]2 [CA]2 c2 | %7
 [=Dc]3 [DF]- [DF] [Dc]2 [AB] | [GB]6 c2 | [Bd]2 c2 B2 cd | [Ec]3 [DB] [CA]2 CD | %11
 [A,CE]2 [CE]2 [DF]GAB | [=Ec]6 z2 | [=Dc]3 [DF] [Dc]3 [DF] |[M:3/4] [Ec]2 [GB]4 | %15
[M:1/4] [Ac][Bd] |[M:4/4] [ce]2 [Ac]2 [DB]3 [CA] |[M:3/4] [CA]6 |[M:1/4] E2 | %19
[M:4/4] .[Ec]2 .[Gc]2 [Bc]2 [Ac]2 | [Gd]2 [Gd]4 z2 | d2 d2 [Bd]4 | [ce]6 z2 | %23
 .[Ec]2 .[Gc]2 [Bc]2 [Ac]2 | [Ge]2 [Fd]4 cB | [CA] c3 [DB]2 [DB]2 |[M:3/4] [CA]6 |] %27
V:2
 z4 z2 A2 | z[K:treble] FED[K:bass] A,,E,A,E, | A,,F,A,F, A,,E,A,E, | A,,E,A,E, A,,E,A,E, | %4
 E,,E,G,E, B,[K:treble]CEA | [E,,E,]2 [G,B,E]2 [E,,E,]2 E,2 | z2 F,2 E,2 E2 | A,,F,A,B, B,,F,A,B, | %8
 E,G,B,E E,2 A2 | [E,,E,]2[K:treble] A2 [G,B,EG]2 AF | A,,E,A,E, A,,2 A,B, | %11
 A,,2 z2 z[K:treble] EF-[F,F] | C,=E,G,E, C,2 E2 | B,,F,A,B, B,,F,A,B, |[M:3/4] E,G, B,E E,D, | %15
[M:1/4] C,B,, |[M:4/4] z2 z E,- E,4 |[M:3/4] [A,,E,]6 |[M:1/4] C2 | %19
[M:4/4] z[K:treble] F z A[K:bass] A,,2 [E,A,C]2 | B,,E,G,E, E2 E2 | z4 z2 [G,B,]2[K:treble] | %22
 A,,E,A,E, A,,2 C2 | z[K:treble] F z A[K:bass] A,,2 [E,A,C]2 | D,F,A,F, D,2 ED | z E3 E,,4 | %26
[M:3/4] [A,,E,]6 |] %27
V:3
 x8 | [E,,E,]2[K:treble] [G,B,]2[K:bass] z4 | x8 | x8 | x5[K:treble] x3 | x8 | A,,6 z2 | x8 | x8 | %9
 x2[K:treble] x6 | x8 | z2 A,4[K:treble] .A,2 | x8 | x8 |[M:3/4] x6 |[M:1/4] x2 | %16
[M:4/4] A,,E, .A,2 E,,4 |[M:3/4] x6 |[M:1/4] x2 |[M:4/4] A,,2[K:treble] [E,A,C]2[K:bass] z4 | x8 | %21
 [E,,E,]2 .[G,B,EG]2 [E,,E,]2 z[K:treble] _c | x8 | A,,2[K:treble] [E,A,C]2[K:bass] z4 | x8 | E,8 | %26
[M:3/4] x6 |] %27
V:4
 x8 | x[K:treble] x3[K:bass] x4 | x8 | x8 | x5[K:treble] x3 | x8 | x8 | x8 | x8 | x2[K:treble] x6 | %10
 x8 | z4 D,4[K:treble] | x8 | x8 |[M:3/4] x6 |[M:1/4] x2 |[M:4/4] x8 |[M:3/4] x6 |[M:1/4] x2 | %19
[M:4/4] x[K:treble] x3[K:bass] x4 | x8 | x7[K:treble] x | x8 | x[K:treble] x3[K:bass] x4 | x8 | %25
 x8 |[M:3/4] x6 |] %27
V:5
 x8 | x8 | x8 | x8 | x8 | x8 | x8 | x8 | x8 | x8 | x8 | x8 | z4 G,2 c2 | x8 |[M:3/4] x6 | %15
[M:1/4] x2 |[M:4/4] x8 |[M:3/4] x6 |[M:1/4] x2 |[M:4/4] x8 | x8 | EF z A z2 z =d | z4 E2 E2 | x8 | %24
 x8 | x8 |[M:3/4] x6 |] %27
V:6
 x8 | x8 | x8 | x8 | x8 | x8 | x8 | x8 | x8 | x8 | x8 | x8 | x8 | x8 |[M:3/4] x6 |[M:1/4] x2 | %16
[M:4/4] x8 |[M:3/4] x6 |[M:1/4] x2 |[M:4/4] x8 | x8 | z4 z2 E2 | x8 | x8 | x8 | x8 |[M:3/4] x6 |] %27

